X: 1
T: the Kirrie Kebbuck
C: J.S.Skinner
R: strathspey
Z: 1997 by John Chambers <jc:trillian.mit.edu>
M: C
L: 1/8
K: D
B \
| "D"A<F F>A "G"B<G G>B | "A7"c>A e>c "D"(3dfe (3dcB \
| "D"A<F F>A "G"B<G G>B |1 "A7"c>A g>c "D"d3 :|2 "A7"(3Agf (3edc "D"d3 |]
g \
| "D"f>g a>f d<a f>d | "G"g>a b>g  "A7"ee \
| "D"f>g a>f "Bm"d<a f>d | "Em"(3Bgf "A7"(3edc "D"d3 |]
g \
| "D"f>g a>f "Bm"(3dag (3fed | "Em"g>a b>g  "A7"(3eba (3gfe \
| "D"(3fed "A7"(3edc "Bm"(3dcB "A7"A>G | "D"F<D "A7"E>C "D"D3 |]
